public/logos/NK.svg

<?xml version="1.0" encoding="UTF-8"?>
<svg xmlns="http://www.w3.org/2000/svg" xmlns:xlink="http://www.w3.org/1999/xlink" width="176pt" height="50.19pt" viewBox="0 0 176 50.19" version="1.1">
<defs>
<clipPath id="clip1">
  <path d="M 37 9 L 83 9 L 83 50.191406 L 37 50.191406 Z M 37 9 "/>
</clipPath>
</defs>
<g id="surface1">
<path style=" stroke:none;fill-rule:nonzero;fill:rgb(12.860107%,11.213684%,11.195374%);fill-opacity:1;" d="M 89.535156 7.003906 C 89.996094 4.664062 90.523438 2.339844 91.027344 0.0078125 C 94.859375 0.015625 98.6875 0.015625 102.519531 0.0078125 C 102.023438 2.304688 101.515625 4.601562 101.085938 6.921875 C 97.242188 7.101562 93.386719 6.953125 89.535156 7.003906 "/>
<path style=" stroke:none;fill-rule:nonzero;fill:rgb(12.860107%,11.213684%,11.195374%);fill-opacity:1;" d="M 136.074219 6.871094 C 136.523438 4.574219 137.058594 2.300781 137.535156 0.015625 C 141.371094 0.00390625 145.203125 0.0234375 149.035156 0.00390625 C 148.535156 2.332031 148.046875 4.667969 147.550781 6.996094 C 143.726562 6.925781 139.886719 7.164062 136.074219 6.871094 "/>
<path style=" stroke:none;fill-rule:nonzero;fill:rgb(12.860107%,11.213684%,11.195374%);fill-opacity:1;" d="M 158.894531 0.976562 C 162.71875 0.992188 166.546875 0.984375 170.378906 0.984375 C 169.730469 4.078125 169.101562 7.175781 168.410156 10.265625 C 170.941406 10.261719 173.46875 10.273438 176 10.253906 C 175.433594 12.789062 174.9375 15.335938 174.363281 17.871094 C 171.847656 17.855469 169.328125 17.867188 166.8125 17.867188 C 165.945312 21.972656 165.039062 26.070312 164.1875 30.175781 C 163.972656 30.980469 164 32.179688 165.003906 32.410156 C 167.132812 32.863281 169.335938 32.5625 171.488281 32.496094 C 170.929688 34.875 170.539062 37.296875 169.898438 39.65625 C 166.347656 40.285156 162.703125 40.296875 159.105469 40.222656 C 157.003906 40.0625 154.613281 39.828125 153.0625 38.226562 C 151.636719 36.695312 151.871094 34.402344 152.183594 32.5 C 153.226562 27.621094 154.265625 22.742188 155.285156 17.855469 C 153.289062 17.867188 151.292969 17.84375 149.300781 17.886719 C 149.816406 15.339844 150.414062 12.808594 150.890625 10.253906 C 152.894531 10.269531 154.890625 10.246094 156.894531 10.273438 C 157.574219 7.179688 158.207031 4.070312 158.894531 0.976562 "/>
<path style=" stroke:none;fill-rule:nonzero;fill:rgb(12.860107%,11.213684%,11.195374%);fill-opacity:1;" d="M 13.941406 9.980469 C 18.527344 8.949219 23.269531 9.007812 27.941406 9.246094 C 31.5 9.628906 35.421875 10.238281 38.058594 12.90625 C 39.636719 14.425781 39.953125 16.730469 39.757812 18.8125 C 35.476562 18.828125 31.203125 18.816406 26.921875 18.820312 C 26.863281 17.804688 26.398438 16.769531 25.386719 16.394531 C 23.1875 15.511719 20.699219 15.5625 18.402344 16 C 16.960938 16.257812 15.535156 17.339844 15.464844 18.90625 C 15.859375 19.976562 17.121094 20.207031 18.109375 20.390625 C 21.035156 20.78125 23.972656 21.050781 26.898438 21.40625 C 29.878906 21.726562 33 22.007812 35.664062 23.503906 C 37.339844 24.417969 38.503906 26.191406 38.566406 28.113281 C 38.625 30.996094 37.488281 33.914062 35.398438 35.917969 C 33.089844 38.109375 30.007812 39.242188 26.953125 39.917969 C 23.691406 40.660156 20.332031 40.71875 17.003906 40.832031 C 12.148438 40.601562 6.871094 40.511719 2.734375 37.605469 C 0.449219 36.03125 -0.339844 33.078125 0.128906 30.441406 C 4.566406 30.429688 9.003906 30.4375 13.441406 30.433594 C 13.609375 31.257812 13.640625 32.277344 14.425781 32.785156 C 15.761719 33.730469 17.472656 33.789062 19.046875 33.832031 C 20.773438 33.835938 22.628906 33.800781 24.136719 32.84375 C 24.964844 32.292969 25.605469 31.175781 25.199219 30.1875 C 24.695312 29.378906 23.640625 29.25 22.785156 29.085938 C 19.375 28.621094 15.953125 28.234375 12.539062 27.816406 C 10.085938 27.515625 7.523438 27.117188 5.4375 25.699219 C 4.003906 24.738281 3.175781 23.011719 3.261719 21.300781 C 3.398438 18.699219 4.375 16.117188 6.09375 14.152344 C 8.125 11.894531 11.035156 10.65625 13.941406 9.980469 "/>
<g clip-path="url(#clip1)" clip-rule="nonzero">
<path style=" stroke:none;fill-rule:nonzero;fill:rgb(12.860107%,11.213684%,11.195374%);fill-opacity:1;" d="M 61.25 17.792969 C 58.433594 18.292969 55.847656 20.152344 54.707031 22.808594 C 53.796875 24.941406 53.28125 27.539062 54.421875 29.6875 C 55.304688 31.363281 57.222656 32.121094 59.007812 32.332031 C 61.652344 32.605469 64.503906 32.242188 66.722656 30.683594 C 69.246094 28.875 70.453125 25.691406 70.453125 22.664062 C 70.453125 21.035156 69.667969 19.386719 68.226562 18.570312 C 66.117188 17.398438 63.566406 17.414062 61.25 17.792969 Z M 55.929688 14.179688 C 59.003906 11.367188 63.074219 9.664062 67.25 9.527344 C 71.070312 9.378906 75.148438 9.972656 78.296875 12.300781 C 80.617188 14 82.023438 16.746094 82.328125 19.582031 C 82.894531 25.34375 80.636719 31.308594 76.382812 35.242188 C 72.726562 38.679688 67.761719 40.574219 62.769531 40.769531 C 58.746094 40.953125 54.136719 40.25 51.433594 36.945312 C 50.554688 41.371094 49.546875 45.773438 48.628906 50.191406 C 44.789062 50.191406 40.949219 50.191406 37.105469 50.191406 C 39.964844 36.882812 42.785156 23.566406 45.609375 10.253906 C 49.34375 10.265625 53.078125 10.277344 56.8125 10.246094 C 56.523438 11.5625 56.242188 12.875 55.929688 14.179688 "/>
</g>
<path style=" stroke:none;fill-rule:nonzero;fill:rgb(12.860107%,11.213684%,11.195374%);fill-opacity:1;" d="M 82.617188 39.609375 C 84.660156 29.8125 86.746094 20.023438 88.863281 10.246094 C 92.6875 10.28125 96.515625 10.265625 100.347656 10.253906 C 98.261719 20.039062 96.199219 29.832031 94.097656 39.617188 C 90.269531 39.589844 86.445312 39.605469 82.617188 39.609375 "/>
<path style=" stroke:none;fill-rule:nonzero;fill:rgb(12.860107%,11.213684%,11.195374%);fill-opacity:1;" d="M 98.746094 39.589844 C 100.875 29.816406 102.925781 20.03125 105 10.25 C 108.746094 10.273438 112.492188 10.265625 116.242188 10.253906 C 114.085938 20.023438 112.058594 29.820312 109.972656 39.605469 C 106.234375 39.589844 102.492188 39.617188 98.746094 39.589844 "/>
<path style=" stroke:none;fill-rule:nonzero;fill:rgb(12.860107%,11.213684%,11.195374%);fill-opacity:1;" d="M 129.109375 39.605469 C 131.210938 29.820312 133.257812 20.023438 135.375 10.246094 C 139.203125 10.277344 143.03125 10.261719 146.863281 10.257812 C 144.796875 20.035156 142.6875 29.808594 140.648438 39.59375 C 136.800781 39.605469 132.957031 39.601562 129.109375 39.605469 "/>
<path style=" stroke:none;fill-rule:nonzero;fill:rgb(12.860107%,11.213684%,11.195374%);fill-opacity:1;" d="M 120.25 12.84375 C 123.355469 10.21875 127.460938 8.386719 131.589844 9.101562 C 130.769531 12.554688 130.121094 16.050781 129.304688 19.503906 C 125.09375 18.796875 120.367188 18.699219 116.710938 21.242188 C 115.199219 22.171875 114.289062 23.71875 113.4375 25.210938 C 114.183594 20.464844 116.484375 15.902344 120.25 12.84375 "/>
</g>
</svg>

<svg xmlns="http://www.w3.org/2000/svg" width="176pt" height="66.92" viewBox="0 0 176 50.19"><defs><clipPath id="a"><path d="M37 9h46v41.191H37Zm0 0"/></clipPath></defs><path d="M89.535 7.004c.461-2.34.988-4.664 1.492-6.996 3.832.008 7.66.008 11.493 0-.497 2.297-1.004 4.594-1.434 6.914-3.844.18-7.7.031-11.55.082M136.074 6.871c.45-2.297.985-4.57 1.461-6.855 3.836-.012 7.668.007 11.5-.012-.5 2.328-.988 4.664-1.484 6.992-3.824-.07-7.664.168-11.477-.125M158.895.977c3.824.015 7.652.007 11.484.007-.649 3.094-1.277 6.192-1.969 9.282 2.531-.004 5.059.007 7.59-.012-.566 2.535-1.062 5.082-1.637 7.617-2.515-.016-5.035-.004-7.55-.004-.868 4.106-1.774 8.203-2.625 12.309-.215.804-.188 2.004.816 2.234 2.129.453 4.332.153 6.484.086-.558 2.379-.949 4.8-1.59 7.16-3.55.63-7.195.64-10.793.567-2.101-.16-4.492-.395-6.042-1.996-1.426-1.532-1.192-3.825-.88-5.727 1.044-4.879 2.083-9.758 3.102-14.645-1.996.012-3.992-.011-5.984.032.515-2.547 1.113-5.078 1.59-7.633 2.004.016 4-.008 6.004.02.68-3.094 1.312-6.204 2-9.297M13.941 9.98c4.586-1.03 9.329-.972 14-.734 3.559.383 7.48.992 10.118 3.66 1.578 1.52 1.894 3.824 1.699 5.906-4.281.016-8.555.004-12.836.008-.059-1.015-.524-2.05-1.535-2.425-2.2-.883-4.688-.832-6.985-.395-1.441.258-2.867 1.34-2.937 2.906.394 1.07 1.656 1.301 2.644 1.485 2.926.39 5.864.66 8.79 1.015 2.98.32 6.101.602 8.765 2.098 1.676.914 2.84 2.687 2.902 4.61.059 2.882-1.078 5.8-3.168 7.804-2.308 2.191-5.39 3.324-8.445 4-3.262.742-6.621.8-9.95.914-4.855-.23-10.132-.32-14.269-3.227C.45 36.031-.34 33.078.13 30.441c4.437-.011 8.875-.003 13.312-.007.168.824.2 1.843.985 2.351 1.336.945 3.047 1.004 4.62 1.047 1.727.004 3.583-.031 5.09-.988.829-.551 1.47-1.668 1.063-2.657-.504-.808-1.558-.937-2.414-1.101-3.41-.465-6.832-.852-10.246-1.27-2.453-.3-5.016-.699-7.101-2.117-1.434-.96-2.262-2.687-2.176-4.398.136-2.602 1.113-5.184 2.832-7.149 2.031-2.257 4.941-3.496 7.847-4.172" style="stroke:none;fill-rule:nonzero;fill:#211d1d;fill-opacity:1"/><g clip-path="url(#a)"><path d="M61.25 17.793c-2.816.5-5.402 2.36-6.543 5.016-.91 2.132-1.426 4.73-.285 6.878.883 1.676 2.8 2.434 4.586 2.645 2.644.273 5.496-.09 7.715-1.648 2.523-1.809 3.73-4.993 3.73-8.02 0-1.629-.785-3.277-2.226-4.094-2.11-1.172-4.66-1.156-6.977-.777m-5.32-3.613c3.074-2.813 7.144-4.516 11.32-4.653 3.82-.148 7.898.446 11.047 2.774 2.32 1.699 3.726 4.445 4.031 7.281.567 5.762-1.691 11.727-5.945 15.66-3.656 3.438-8.621 5.332-13.613 5.528-4.024.183-8.633-.52-11.336-3.825-.88 4.426-1.887 8.828-2.805 13.246H37.105c2.86-13.308 5.68-26.625 8.504-39.937 3.735.012 7.47.023 11.203-.008-.289 1.316-.57 2.629-.882 3.934" style="stroke:none;fill-rule:nonzero;fill:#211d1d;fill-opacity:1"/></g><path d="M82.617 39.61a3919 3919 0 0 1 6.246-29.364c3.825.035 7.653.02 11.485.008-2.086 9.785-4.149 19.578-6.25 29.363-3.828-.027-7.653-.012-11.48-.008M98.746 39.59c2.129-9.774 4.18-19.559 6.254-29.34 3.746.023 7.492.016 11.242.004-2.156 9.77-4.183 19.566-6.27 29.351-3.738-.015-7.48.012-11.226-.015M129.11 39.605c2.1-9.785 4.148-19.582 6.265-29.359 3.828.031 7.656.016 11.488.012-2.066 9.777-4.175 19.55-6.215 29.336-3.847.011-7.691.008-11.539.011M120.25 12.844c3.105-2.625 7.21-4.457 11.34-3.742-.82 3.453-1.469 6.949-2.285 10.402-4.211-.707-8.938-.805-12.594 1.738-1.512.93-2.422 2.477-3.273 3.969.746-4.746 3.046-9.309 6.812-12.367" style="stroke:none;fill-rule:nonzero;fill:#211d1d;fill-opacity:1"/></svg>
